static/img/clients/v-zug.svg

<svg fill="none" height="205" viewBox="0 0 204 205" width="204" xmlns="http://www.w3.org/2000/svg"><g fill="#fff"><path d="m.0898438.719971 15.9800562 135.130029s8.2699 68.97 84.8001 68.97h2.15c76.81 0 84.8-68.97 84.8-68.97l15.98-135.130029zm175.4701562 127.670029s-4.25 63.71-73.62 63.71c-69.6502 0-73.6201-63.71-73.6201-63.71l-13.59-114.96h174.4201z"/><path d="m127.039 87.6498c0 20.9002 17.34 21.8302 17.34 21.8302h25.51v-21.8302h-13.23v10.29h-7.91s-8.16.4-8.17-10.29c-.01-10.02 7.72-9.1699 7.72-9.1699l21.59-.0101v-10.94h-25.71c.01.01-17.14-.78-17.14 20.12z"/><path d="m109.869 87.3201s.76 12-8.93 12h-.17c-9.6796 0-8.9296-12-8.9296-12v-19.7701l-12.98-.01v24.07s-.06 18.73 21.8996 18.73h.18c21.96 0 21.9-18.73 21.9-18.73v-24.07l-12.99.01v19.7701z"/><path d="m73.8102 79.61v-12.0399l-38.87-.0201v10.95h20.3201l-21.2701 19.4501v11.5399h40.5801v-11.5399h-20.8301z"/><path d="m100.88 52.4299-11.7103-28.78-12.99.01 16.39 40.55h16.5903l16.39-40.55-12.99-.01z"/></g></svg>

<svg width="204" height="205" viewBox="0 0 204 205" fill="none" xmlns="http://www.w3.org/2000/svg">
<path d="M0.0898438 0.719971L16.0699 135.85C16.0699 135.85 24.3398 204.82 100.87 204.82H103.02C179.83 204.82 187.82 135.85 187.82 135.85L203.8 0.719971H0.0898438ZM175.56 128.39C175.56 128.39 171.31 192.1 101.94 192.1C32.2898 192.1 28.3199 128.39 28.3199 128.39L14.7299 13.43H189.15L175.56 128.39Z" fill="#FFF"/>
<path d="M127.039 87.6498C127.039 108.55 144.379 109.48 144.379 109.48H169.889V87.6498H156.659V97.9398H148.749C148.749 97.9398 140.589 98.3398 140.579 87.6498C140.569 77.6298 148.299 78.4799 148.299 78.4799L169.889 78.4698V67.5298H144.179C144.189 67.5398 127.039 66.7498 127.039 87.6498Z" fill="#FFF"/>
<path d="M109.869 87.3201C109.869 87.3201 110.629 99.3201 100.939 99.3201H100.769C91.0894 99.3201 91.8394 87.3201 91.8394 87.3201V67.55L78.8594 67.54V91.61C78.8594 91.61 78.7994 110.34 100.759 110.34H100.939C122.899 110.34 122.839 91.61 122.839 91.61V67.54L109.849 67.55V87.3201H109.869Z" fill="#FFF"/>
<path d="M73.8102 79.61V67.5701L34.9402 67.55V78.5H55.2603L33.9902 97.9501V109.49H74.5703V97.9501H53.7402L73.8102 79.61Z" fill="#FFF"/>
<path d="M100.88 52.4299L89.1697 23.6499L76.1797 23.6599L92.5697 64.2099H109.16L125.55 23.6599L112.56 23.6499L100.88 52.4299Z" fill="#FFF"/>
</svg>
